src/images/about/3.svg

<svg width="54" height="50" viewBox="0 0 54 50" fill="none" xmlns="http://www.w3.org/2000/svg">
<rect opacity="0.2" x="10.0796" y="0.613281" width="43.92" height="43.92"/>
<g clip-path="url(#clip0)">
<path fill-rule="evenodd" clip-rule="evenodd" d="M30.2016 32.4873C30.3219 32.4873 30.5798 32.2294 30.5969 32.3497C30.5969 32.917 30.5626 32.8998 30.511 33.0029C29.1359 35.4782 23.2744 46.0323 23.2744 46.0323C22.0539 48.2154 19.7506 49.5733 17.2581 49.5733C14.7657 49.5733 12.4624 48.2154 11.2419 46.0323C11.2419 46.0323 6.05079 36.6986 5.65544 35.9767C5.63825 35.9423 5.60387 35.9251 5.58668 35.9251C5.19133 35.9251 2.63014 35.9251 1.891 35.9251C1.77068 35.9251 1.65035 35.8563 1.59879 35.7532C1.32376 35.2547 0.515868 33.7936 0.0689491 33.0029C0.0173815 32.8998 0.0173815 32.7623 0.0689491 32.6591C0.137706 32.556 0.240841 32.4873 0.361165 32.4873C1.46127 32.4873 6.65241 32.4873 7.44311 32.4873C7.56344 32.4873 7.68376 32.556 7.75252 32.6591C8.5776 34.1374 14.25 44.3478 14.25 44.3478C14.8345 45.4479 15.9861 46.1355 17.2409 46.1355C18.4958 46.1355 19.6474 45.4651 20.2491 44.365C20.2491 44.365 25.9215 34.1374 26.7466 32.6763C26.8153 32.5732 26.9185 32.5044 27.056 32.5044C27.6232 32.4873 29.3078 32.4873 30.2016 32.4873Z" fill="white"/>
<path fill-rule="evenodd" clip-rule="evenodd" d="M30.5971 32.7107L26.7295 32.8998V11.4133H30.5971V32.7107Z" fill="white"/>
<path d="M7.6663 11.4133H3.81592V33.4155H7.6663V11.4133Z" fill="white"/>
</g>
<defs>
<clipPath id="clip0">
<rect width="30.5968" height="38.16" fill="white" transform="translate(0 11.4133)"/>
</clipPath>
</defs>
</svg>

<?xml version="1.0" encoding="utf-8"?>
<!-- Generator: Adobe Illustrator 25.2.1, SVG Export Plug-In . SVG Version: 6.00 Build 0)  -->
<svg version="1.1" id="Warstwa_1" xmlns="http://www.w3.org/2000/svg" xmlns:xlink="http://www.w3.org/1999/xlink" x="0px" y="0px"
	 viewBox="0 0 54 50" style="enable-background:new 0 0 54 50;" xml:space="preserve">
<style type="text/css">
	.st0{fill:url(#SVGID_1_);}
	.st1{fill:url(#SVGID_2_);}
	.st2{fill:url(#SVGID_3_);}
	.st3{fill:url(#SVGID_4_);}
	.st4{fill:url(#SVGID_5_);}
	.st5{fill:url(#SVGID_6_);}
	.st6{fill:url(#SVGID_7_);}
	.st7{fill:url(#SVGID_8_);}
	.st8{fill:url(#SVGID_9_);}
	.st9{fill:url(#SVGID_10_);}
	.st10{fill:url(#SVGID_11_);}
	.st11{fill:url(#SVGID_12_);}
	.st12{fill:url(#SVGID_13_);}
	.st13{fill:url(#SVGID_14_);}
	.st14{fill:url(#SVGID_15_);}
	.st15{fill:url(#SVGID_16_);}
	.st16{fill:url(#SVGID_17_);}
	.st17{fill:url(#SVGID_18_);}
	.st18{fill:url(#SVGID_19_);}
	.st19{fill:url(#SVGID_20_);}
	.st20{fill:url(#SVGID_21_);}
	.st21{fill:url(#SVGID_22_);}
	.st22{fill:url(#SVGID_23_);}
	.st23{fill:url(#SVGID_24_);}
	.st24{fill:url(#SVGID_25_);}
	.st25{fill:url(#SVGID_26_);}
	.st26{fill:url(#SVGID_27_);}
	.st27{fill:url(#SVGID_28_);}
	.st28{fill:url(#SVGID_29_);}
	.st29{fill:url(#SVGID_30_);}
	.st30{fill:url(#SVGID_31_);}
	.st31{fill:url(#SVGID_32_);}
	.st32{fill:url(#SVGID_33_);}
	.st33{fill:url(#SVGID_34_);}
	.st34{fill:url(#SVGID_35_);}
	.st35{fill:url(#SVGID_36_);}
	.st36{fill:url(#SVGID_37_);}
	.st37{fill:url(#SVGID_38_);}
	.st38{fill:url(#SVGID_39_);}
	.st39{fill:url(#SVGID_40_);}
	.st40{fill:url(#SVGID_41_);}
	.st41{fill:url(#SVGID_42_);}
	.st42{fill:url(#SVGID_43_);}
	.st43{fill:url(#SVGID_44_);}
	.st44{fill:url(#SVGID_45_);}
	.st45{fill:url(#SVGID_46_);}
	.st46{fill:url(#SVGID_47_);}
	.st47{fill:url(#SVGID_48_);}
	.st48{fill:url(#SVGID_49_);}
	.st49{clip-path:url(#SVGID_51_);}
	.st50{fill-rule:evenodd;clip-rule:evenodd;fill:#FFFFFF;}
	.st51{fill:#FFFFFF;}
</style>
<g>
	<g>
		
			<linearGradient id="SVGID_1_" gradientUnits="userSpaceOnUse" x1="10.577" y1="49.3107" x2="13.5647" y2="49.3107" gradientTransform="matrix(1 0 0 -1 0 52)">
			<stop  offset="0" style="stop-color:#414243"/>
			<stop  offset="1" style="stop-color:#3D3D3F"/>
		</linearGradient>
		<circle class="st0" cx="12.1" cy="2.7" r="1.5"/>
		
			<linearGradient id="SVGID_2_" gradientUnits="userSpaceOnUse" x1="17.3633" y1="49.3107" x2="20.351" y2="49.3107" gradientTransform="matrix(1 0 0 -1 0 52)">
			<stop  offset="0" style="stop-color:#414243"/>
			<stop  offset="1" style="stop-color:#3D3D3F"/>
		</linearGradient>
		<circle class="st1" cx="18.9" cy="2.7" r="1.5"/>
		
			<linearGradient id="SVGID_3_" gradientUnits="userSpaceOnUse" x1="24.1496" y1="49.3107" x2="27.1372" y2="49.3107" gradientTransform="matrix(1 0 0 -1 0 52)">
			<stop  offset="0" style="stop-color:#414243"/>
			<stop  offset="1" style="stop-color:#3D3D3F"/>
		</linearGradient>
		<circle class="st2" cx="25.6" cy="2.7" r="1.5"/>
		
			<linearGradient id="SVGID_4_" gradientUnits="userSpaceOnUse" x1="30.9358" y1="49.3107" x2="33.9235" y2="49.3107" gradientTransform="matrix(1 0 0 -1 0 52)">
			<stop  offset="0" style="stop-color:#414243"/>
			<stop  offset="1" style="stop-color:#3D3D3F"/>
		</linearGradient>
		<circle class="st3" cx="32.4" cy="2.7" r="1.5"/>
		
			<linearGradient id="SVGID_5_" gradientUnits="userSpaceOnUse" x1="37.7221" y1="49.3107" x2="40.7097" y2="49.3107" gradientTransform="matrix(1 0 0 -1 0 52)">
			<stop  offset="0" style="stop-color:#414243"/>
			<stop  offset="1" style="stop-color:#3D3D3F"/>
		</linearGradient>
		<circle class="st4" cx="39.2" cy="2.7" r="1.5"/>
		
			<linearGradient id="SVGID_6_" gradientUnits="userSpaceOnUse" x1="44.5083" y1="49.3107" x2="47.496" y2="49.3107" gradientTransform="matrix(1 0 0 -1 0 52)">
			<stop  offset="0" style="stop-color:#414243"/>
			<stop  offset="1" style="stop-color:#3D3D3F"/>
		</linearGradient>
		<circle class="st5" cx="46" cy="2.7" r="1.5"/>
		
			<linearGradient id="SVGID_7_" gradientUnits="userSpaceOnUse" x1="51.2946" y1="49.3107" x2="54.2823" y2="49.3107" gradientTransform="matrix(1 0 0 -1 0 52)">
			<stop  offset="0" style="stop-color:#414243"/>
			<stop  offset="1" style="stop-color:#3D3D3F"/>
		</linearGradient>
		<circle class="st6" cx="52.8" cy="2.7" r="1.5"/>
	</g>
	<g>
		
			<linearGradient id="SVGID_8_" gradientUnits="userSpaceOnUse" x1="10.577" y1="42.5257" x2="13.5647" y2="42.5257" gradientTransform="matrix(1 0 0 -1 0 52)">
			<stop  offset="0" style="stop-color:#414243"/>
			<stop  offset="1" style="stop-color:#3D3D3F"/>
		</linearGradient>
		<circle class="st7" cx="12.1" cy="9.5" r="1.5"/>
		
			<linearGradient id="SVGID_9_" gradientUnits="userSpaceOnUse" x1="17.3633" y1="42.5257" x2="20.351" y2="42.5257" gradientTransform="matrix(1 0 0 -1 0 52)">
			<stop  offset="0" style="stop-color:#414243"/>
			<stop  offset="1" style="stop-color:#3D3D3F"/>
		</linearGradient>
		<circle class="st8" cx="18.9" cy="9.5" r="1.5"/>
		
			<linearGradient id="SVGID_10_" gradientUnits="userSpaceOnUse" x1="24.1496" y1="42.5257" x2="27.1372" y2="42.5257" gradientTransform="matrix(1 0 0 -1 0 52)">
			<stop  offset="0" style="stop-color:#414243"/>
			<stop  offset="1" style="stop-color:#3D3D3F"/>
		</linearGradient>
		<circle class="st9" cx="25.6" cy="9.5" r="1.5"/>
		
			<linearGradient id="SVGID_11_" gradientUnits="userSpaceOnUse" x1="30.9358" y1="42.5257" x2="33.9235" y2="42.5257" gradientTransform="matrix(1 0 0 -1 0 52)">
			<stop  offset="0" style="stop-color:#414243"/>
			<stop  offset="1" style="stop-color:#3D3D3F"/>
		</linearGradient>
		<circle class="st10" cx="32.4" cy="9.5" r="1.5"/>
		
			<linearGradient id="SVGID_12_" gradientUnits="userSpaceOnUse" x1="37.7221" y1="42.5257" x2="40.7097" y2="42.5257" gradientTransform="matrix(1 0 0 -1 0 52)">
			<stop  offset="0" style="stop-color:#414243"/>
			<stop  offset="1" style="stop-color:#3D3D3F"/>
		</linearGradient>
		<circle class="st11" cx="39.2" cy="9.5" r="1.5"/>
		
			<linearGradient id="SVGID_13_" gradientUnits="userSpaceOnUse" x1="44.5083" y1="42.5257" x2="47.496" y2="42.5257" gradientTransform="matrix(1 0 0 -1 0 52)">
			<stop  offset="0" style="stop-color:#414243"/>
			<stop  offset="1" style="stop-color:#3D3D3F"/>
		</linearGradient>
		<circle class="st12" cx="46" cy="9.5" r="1.5"/>
		
			<linearGradient id="SVGID_14_" gradientUnits="userSpaceOnUse" x1="51.2946" y1="42.5257" x2="54.2823" y2="42.5257" gradientTransform="matrix(1 0 0 -1 0 52)">
			<stop  offset="0" style="stop-color:#414243"/>
			<stop  offset="1" style="stop-color:#3D3D3F"/>
		</linearGradient>
		<circle class="st13" cx="52.8" cy="9.5" r="1.5"/>
	</g>
	<g>
		
			<linearGradient id="SVGID_15_" gradientUnits="userSpaceOnUse" x1="10.577" y1="35.7707" x2="13.5647" y2="35.7707" gradientTransform="matrix(1 0 0 -1 0 52)">
			<stop  offset="0" style="stop-color:#414243"/>
			<stop  offset="1" style="stop-color:#3D3D3F"/>
		</linearGradient>
		<circle class="st14" cx="12.1" cy="16.2" r="1.5"/>
		
			<linearGradient id="SVGID_16_" gradientUnits="userSpaceOnUse" x1="17.3633" y1="35.7707" x2="20.351" y2="35.7707" gradientTransform="matrix(1 0 0 -1 0 52)">
			<stop  offset="0" style="stop-color:#414243"/>
			<stop  offset="1" style="stop-color:#3D3D3F"/>
		</linearGradient>
		<circle class="st15" cx="18.9" cy="16.2" r="1.5"/>
		
			<linearGradient id="SVGID_17_" gradientUnits="userSpaceOnUse" x1="24.1496" y1="35.7707" x2="27.1372" y2="35.7707" gradientTransform="matrix(1 0 0 -1 0 52)">
			<stop  offset="0" style="stop-color:#414243"/>
			<stop  offset="1" style="stop-color:#3D3D3F"/>
		</linearGradient>
		<circle class="st16" cx="25.6" cy="16.2" r="1.5"/>
		
			<linearGradient id="SVGID_18_" gradientUnits="userSpaceOnUse" x1="30.9358" y1="35.7707" x2="33.9235" y2="35.7707" gradientTransform="matrix(1 0 0 -1 0 52)">
			<stop  offset="0" style="stop-color:#414243"/>
			<stop  offset="1" style="stop-color:#3D3D3F"/>
		</linearGradient>
		<circle class="st17" cx="32.4" cy="16.2" r="1.5"/>
		
			<linearGradient id="SVGID_19_" gradientUnits="userSpaceOnUse" x1="37.7221" y1="35.7707" x2="40.7097" y2="35.7707" gradientTransform="matrix(1 0 0 -1 0 52)">
			<stop  offset="0" style="stop-color:#414243"/>
			<stop  offset="1" style="stop-color:#3D3D3F"/>
		</linearGradient>
		<circle class="st18" cx="39.2" cy="16.2" r="1.5"/>
		
			<linearGradient id="SVGID_20_" gradientUnits="userSpaceOnUse" x1="44.5083" y1="35.7707" x2="47.496" y2="35.7707" gradientTransform="matrix(1 0 0 -1 0 52)">
			<stop  offset="0" style="stop-color:#414243"/>
			<stop  offset="1" style="stop-color:#3D3D3F"/>
		</linearGradient>
		<circle class="st19" cx="46" cy="16.2" r="1.5"/>
		
			<linearGradient id="SVGID_21_" gradientUnits="userSpaceOnUse" x1="51.2946" y1="35.7707" x2="54.2823" y2="35.7707" gradientTransform="matrix(1 0 0 -1 0 52)">
			<stop  offset="0" style="stop-color:#414243"/>
			<stop  offset="1" style="stop-color:#3D3D3F"/>
		</linearGradient>
		<circle class="st20" cx="52.8" cy="16.2" r="1.5"/>
	</g>
	<g>
		
			<linearGradient id="SVGID_22_" gradientUnits="userSpaceOnUse" x1="10.577" y1="29.0158" x2="13.5647" y2="29.0158" gradientTransform="matrix(1 0 0 -1 0 52)">
			<stop  offset="0" style="stop-color:#414243"/>
			<stop  offset="1" style="stop-color:#3D3D3F"/>
		</linearGradient>
		<circle class="st21" cx="12.1" cy="23" r="1.5"/>
		
			<linearGradient id="SVGID_23_" gradientUnits="userSpaceOnUse" x1="17.3633" y1="29.0158" x2="20.351" y2="29.0158" gradientTransform="matrix(1 0 0 -1 0 52)">
			<stop  offset="0" style="stop-color:#414243"/>
			<stop  offset="1" style="stop-color:#3D3D3F"/>
		</linearGradient>
		<circle class="st22" cx="18.9" cy="23" r="1.5"/>
		
			<linearGradient id="SVGID_24_" gradientUnits="userSpaceOnUse" x1="24.1496" y1="29.0158" x2="27.1372" y2="29.0158" gradientTransform="matrix(1 0 0 -1 0 52)">
			<stop  offset="0" style="stop-color:#414243"/>
			<stop  offset="1" style="stop-color:#3D3D3F"/>
		</linearGradient>
		<circle class="st23" cx="25.6" cy="23" r="1.5"/>
		
			<linearGradient id="SVGID_25_" gradientUnits="userSpaceOnUse" x1="30.9358" y1="29.0158" x2="33.9235" y2="29.0158" gradientTransform="matrix(1 0 0 -1 0 52)">
			<stop  offset="0" style="stop-color:#414243"/>
			<stop  offset="1" style="stop-color:#3D3D3F"/>
		</linearGradient>
		<circle class="st24" cx="32.4" cy="23" r="1.5"/>
		
			<linearGradient id="SVGID_26_" gradientUnits="userSpaceOnUse" x1="37.7221" y1="29.0158" x2="40.7097" y2="29.0158" gradientTransform="matrix(1 0 0 -1 0 52)">
			<stop  offset="0" style="stop-color:#414243"/>
			<stop  offset="1" style="stop-color:#3D3D3F"/>
		</linearGradient>
		<circle class="st25" cx="39.2" cy="23" r="1.5"/>
		
			<linearGradient id="SVGID_27_" gradientUnits="userSpaceOnUse" x1="44.5083" y1="29.0158" x2="47.496" y2="29.0158" gradientTransform="matrix(1 0 0 -1 0 52)">
			<stop  offset="0" style="stop-color:#414243"/>
			<stop  offset="1" style="stop-color:#3D3D3F"/>
		</linearGradient>
		<circle class="st26" cx="46" cy="23" r="1.5"/>
		
			<linearGradient id="SVGID_28_" gradientUnits="userSpaceOnUse" x1="51.2946" y1="29.0158" x2="54.2823" y2="29.0158" gradientTransform="matrix(1 0 0 -1 0 52)">
			<stop  offset="0" style="stop-color:#414243"/>
			<stop  offset="1" style="stop-color:#3D3D3F"/>
		</linearGradient>
		<circle class="st27" cx="52.8" cy="23" r="1.5"/>
	</g>
	<g>
		
			<linearGradient id="SVGID_29_" gradientUnits="userSpaceOnUse" x1="10.577" y1="22.2608" x2="13.5647" y2="22.2608" gradientTransform="matrix(1 0 0 -1 0 52)">
			<stop  offset="0" style="stop-color:#414243"/>
			<stop  offset="1" style="stop-color:#3D3D3F"/>
		</linearGradient>
		<circle class="st28" cx="12.1" cy="29.7" r="1.5"/>
		
			<linearGradient id="SVGID_30_" gradientUnits="userSpaceOnUse" x1="17.3633" y1="22.2608" x2="20.351" y2="22.2608" gradientTransform="matrix(1 0 0 -1 0 52)">
			<stop  offset="0" style="stop-color:#414243"/>
			<stop  offset="1" style="stop-color:#3D3D3F"/>
		</linearGradient>
		<circle class="st29" cx="18.9" cy="29.7" r="1.5"/>
		
			<linearGradient id="SVGID_31_" gradientUnits="userSpaceOnUse" x1="24.1496" y1="22.2608" x2="27.1372" y2="22.2608" gradientTransform="matrix(1 0 0 -1 0 52)">
			<stop  offset="0" style="stop-color:#414243"/>
			<stop  offset="1" style="stop-color:#3D3D3F"/>
		</linearGradient>
		<circle class="st30" cx="25.6" cy="29.7" r="1.5"/>
		
			<linearGradient id="SVGID_32_" gradientUnits="userSpaceOnUse" x1="30.9358" y1="22.2608" x2="33.9235" y2="22.2608" gradientTransform="matrix(1 0 0 -1 0 52)">
			<stop  offset="0" style="stop-color:#414243"/>
			<stop  offset="1" style="stop-color:#3D3D3F"/>
		</linearGradient>
		<circle class="st31" cx="32.4" cy="29.7" r="1.5"/>
		
			<linearGradient id="SVGID_33_" gradientUnits="userSpaceOnUse" x1="37.7221" y1="22.2608" x2="40.7097" y2="22.2608" gradientTransform="matrix(1 0 0 -1 0 52)">
			<stop  offset="0" style="stop-color:#414243"/>
			<stop  offset="1" style="stop-color:#3D3D3F"/>
		</linearGradient>
		<circle class="st32" cx="39.2" cy="29.7" r="1.5"/>
		
			<linearGradient id="SVGID_34_" gradientUnits="userSpaceOnUse" x1="44.5083" y1="22.2608" x2="47.496" y2="22.2608" gradientTransform="matrix(1 0 0 -1 0 52)">
			<stop  offset="0" style="stop-color:#414243"/>
			<stop  offset="1" style="stop-color:#3D3D3F"/>
		</linearGradient>
		<circle class="st33" cx="46" cy="29.7" r="1.5"/>
		
			<linearGradient id="SVGID_35_" gradientUnits="userSpaceOnUse" x1="51.2946" y1="22.2608" x2="54.2823" y2="22.2608" gradientTransform="matrix(1 0 0 -1 0 52)">
			<stop  offset="0" style="stop-color:#414243"/>
			<stop  offset="1" style="stop-color:#3D3D3F"/>
		</linearGradient>
		<circle class="st34" cx="52.8" cy="29.7" r="1.5"/>
	</g>
	<g>
		
			<linearGradient id="SVGID_36_" gradientUnits="userSpaceOnUse" x1="10.577" y1="15.5059" x2="13.5647" y2="15.5059" gradientTransform="matrix(1 0 0 -1 0 52)">
			<stop  offset="0" style="stop-color:#414243"/>
			<stop  offset="1" style="stop-color:#3D3D3F"/>
		</linearGradient>
		<circle class="st35" cx="12.1" cy="36.5" r="1.5"/>
		
			<linearGradient id="SVGID_37_" gradientUnits="userSpaceOnUse" x1="17.3633" y1="15.5059" x2="20.351" y2="15.5059" gradientTransform="matrix(1 0 0 -1 0 52)">
			<stop  offset="0" style="stop-color:#414243"/>
			<stop  offset="1" style="stop-color:#3D3D3F"/>
		</linearGradient>
		<circle class="st36" cx="18.9" cy="36.5" r="1.5"/>
		
			<linearGradient id="SVGID_38_" gradientUnits="userSpaceOnUse" x1="24.1496" y1="15.5059" x2="27.1372" y2="15.5059" gradientTransform="matrix(1 0 0 -1 0 52)">
			<stop  offset="0" style="stop-color:#414243"/>
			<stop  offset="1" style="stop-color:#3D3D3F"/>
		</linearGradient>
		<circle class="st37" cx="25.6" cy="36.5" r="1.5"/>
		
			<linearGradient id="SVGID_39_" gradientUnits="userSpaceOnUse" x1="30.9358" y1="15.5059" x2="33.9235" y2="15.5059" gradientTransform="matrix(1 0 0 -1 0 52)">
			<stop  offset="0" style="stop-color:#414243"/>
			<stop  offset="1" style="stop-color:#3D3D3F"/>
		</linearGradient>
		<circle class="st38" cx="32.4" cy="36.5" r="1.5"/>
		
			<linearGradient id="SVGID_40_" gradientUnits="userSpaceOnUse" x1="37.7221" y1="15.5059" x2="40.7097" y2="15.5059" gradientTransform="matrix(1 0 0 -1 0 52)">
			<stop  offset="0" style="stop-color:#414243"/>
			<stop  offset="1" style="stop-color:#3D3D3F"/>
		</linearGradient>
		<circle class="st39" cx="39.2" cy="36.5" r="1.5"/>
		
			<linearGradient id="SVGID_41_" gradientUnits="userSpaceOnUse" x1="44.5083" y1="15.5059" x2="47.496" y2="15.5059" gradientTransform="matrix(1 0 0 -1 0 52)">
			<stop  offset="0" style="stop-color:#414243"/>
			<stop  offset="1" style="stop-color:#3D3D3F"/>
		</linearGradient>
		<circle class="st40" cx="46" cy="36.5" r="1.5"/>
		
			<linearGradient id="SVGID_42_" gradientUnits="userSpaceOnUse" x1="51.2946" y1="15.5059" x2="54.2823" y2="15.5059" gradientTransform="matrix(1 0 0 -1 0 52)">
			<stop  offset="0" style="stop-color:#414243"/>
			<stop  offset="1" style="stop-color:#3D3D3F"/>
		</linearGradient>
		<circle class="st41" cx="52.8" cy="36.5" r="1.5"/>
	</g>
	<g>
		
			<linearGradient id="SVGID_43_" gradientUnits="userSpaceOnUse" x1="10.577" y1="8.7209" x2="13.5647" y2="8.7209" gradientTransform="matrix(1 0 0 -1 0 52)">
			<stop  offset="0" style="stop-color:#414243"/>
			<stop  offset="1" style="stop-color:#3D3D3F"/>
		</linearGradient>
		<circle class="st42" cx="12.1" cy="43.3" r="1.5"/>
		
			<linearGradient id="SVGID_44_" gradientUnits="userSpaceOnUse" x1="17.3633" y1="8.7209" x2="20.351" y2="8.7209" gradientTransform="matrix(1 0 0 -1 0 52)">
			<stop  offset="0" style="stop-color:#414243"/>
			<stop  offset="1" style="stop-color:#3D3D3F"/>
		</linearGradient>
		<circle class="st43" cx="18.9" cy="43.3" r="1.5"/>
		
			<linearGradient id="SVGID_45_" gradientUnits="userSpaceOnUse" x1="24.1496" y1="8.7209" x2="27.1372" y2="8.7209" gradientTransform="matrix(1 0 0 -1 0 52)">
			<stop  offset="0" style="stop-color:#414243"/>
			<stop  offset="1" style="stop-color:#3D3D3F"/>
		</linearGradient>
		<circle class="st44" cx="25.6" cy="43.3" r="1.5"/>
		
			<linearGradient id="SVGID_46_" gradientUnits="userSpaceOnUse" x1="30.9358" y1="8.7209" x2="33.9235" y2="8.7209" gradientTransform="matrix(1 0 0 -1 0 52)">
			<stop  offset="0" style="stop-color:#414243"/>
			<stop  offset="1" style="stop-color:#3D3D3F"/>
		</linearGradient>
		<circle class="st45" cx="32.4" cy="43.3" r="1.5"/>
		
			<linearGradient id="SVGID_47_" gradientUnits="userSpaceOnUse" x1="37.7221" y1="8.7209" x2="40.7097" y2="8.7209" gradientTransform="matrix(1 0 0 -1 0 52)">
			<stop  offset="0" style="stop-color:#414243"/>
			<stop  offset="1" style="stop-color:#3D3D3F"/>
		</linearGradient>
		<circle class="st46" cx="39.2" cy="43.3" r="1.5"/>
		
			<linearGradient id="SVGID_48_" gradientUnits="userSpaceOnUse" x1="44.5083" y1="8.7209" x2="47.496" y2="8.7209" gradientTransform="matrix(1 0 0 -1 0 52)">
			<stop  offset="0" style="stop-color:#414243"/>
			<stop  offset="1" style="stop-color:#3D3D3F"/>
		</linearGradient>
		<circle class="st47" cx="46" cy="43.3" r="1.5"/>
		
			<linearGradient id="SVGID_49_" gradientUnits="userSpaceOnUse" x1="51.2946" y1="8.7209" x2="54.2823" y2="8.7209" gradientTransform="matrix(1 0 0 -1 0 52)">
			<stop  offset="0" style="stop-color:#414243"/>
			<stop  offset="1" style="stop-color:#3D3D3F"/>
		</linearGradient>
		<circle class="st48" cx="52.8" cy="43.3" r="1.5"/>
	</g>
</g>
<g>
	<defs>
		<rect id="SVGID_50_" y="11.4" width="30.6" height="38.2"/>
	</defs>
	<clipPath id="SVGID_51_">
		<use xlink:href="#SVGID_50_"  style="overflow:visible;"/>
	</clipPath>
	<g class="st49">
		<path class="st50" d="M30.2,32.5c0.1,0,0.4-0.3,0.4-0.1c0,0.6,0,0.6-0.1,0.7c-1.4,2.5-7.2,13-7.2,13c-1.2,2.2-3.5,3.5-6,3.5
			c-2.5,0-4.8-1.4-6-3.5c0,0-5.2-9.3-5.6-10.1c0,0-0.1-0.1-0.1-0.1c-0.4,0-3,0-3.7,0c-0.1,0-0.2-0.1-0.3-0.2c-0.3-0.5-1.1-2-1.5-2.8
			c-0.1-0.1-0.1-0.2,0-0.3c0.1-0.1,0.2-0.2,0.3-0.2c1.1,0,6.3,0,7.1,0c0.1,0,0.2,0.1,0.3,0.2c0.8,1.5,6.5,11.7,6.5,11.7
			c0.6,1.1,1.7,1.8,3,1.8c1.3,0,2.4-0.7,3-1.8c0,0,5.7-10.2,6.5-11.7c0.1-0.1,0.2-0.2,0.3-0.2C27.6,32.5,29.3,32.5,30.2,32.5z"/>
		<path class="st50" d="M30.6,32.7l-3.9,0.2V11.4h3.9V32.7z"/>
		<path class="st51" d="M7.7,11.4H3.8v22h3.9V11.4z"/>
	</g>
</g>
</svg>
